X: 26006
T: Mayor Harrison's Fedora
R: reel
M: 4/4
K: Edorian
EF|:"E"GB"e"EG ~B2 "e"AF|GF"e"GA Bd"e"AG|"D"FA"d"DF AD"d"FA|dc"d"dB AF"d"DF|
"E"GB"e"EG ~B2 "e"AF|GF"e"GA BA"e"Bc|"D"de"d"dB AF"d"DF|1 "B"GE"b"ED "E"(E2"e"E) F:|2 "B"GE"b"ED "E"(E2"e"E2)||
|:"E"Be"e"ed e2 "e"ef|g2 "e"fg ed"e"BA|"G"GA"g"Bc (d2"g"d)A|"D"df"d"af "B"gf"b"ed|
"E"Be"e"ed e2 "e"ef|g2 "e"fg ed"e"Bc|"D"de"d"dB AF"d"DF|1 "B"GE"b"ED "E"(E2"e"E2):|2 "B"GE"b"ED "E"(E2"e"E) F||
|:"G"G2 "g"GF GA"g"Bc|"D"d2"d"AG FA"d"D2|"E"Be"e"ed ef"e"ge|fe"e"df ed"e"Bc|
"D"de"d"dB AF"d"DF|"E"GF"e"EF GA"e"Bc|"D"de"d"dB AF"d"DF|"B"GE"b"ED "E"(E2"e"E2):|

